public/assets/img/build1.svg

<svg width="74" height="75" viewBox="0 0 74 75" fill="none" xmlns="http://www.w3.org/2000/svg">
<path d="M74 31.4516H71.318L67.3207 33.5833C66.8708 33.3317 66.4028 33.1185 65.8981 32.9903L60.8698 31.715V31.1356C63.0943 29.5621 64.4516 26.9626 64.4516 24.1936V22.079C64.4516 17.3797 60.8185 13.447 56.3532 13.31C56.1265 13.3041 55.9033 13.3124 55.6789 13.3236L56.9826 10.2303L50.6623 3.82631L46.9365 6.28406C45.5209 5.47604 44.0238 4.84698 42.4689 4.40575L41.5487 0H32.4525L31.5323 4.40694C29.9774 4.84816 28.4791 5.47722 27.0646 6.28524L23.3389 3.8275L17.0238 10.2279L18.3053 13.3236C18.2564 13.3212 18.2098 13.3124 18.1608 13.3112C15.8751 13.2438 13.7223 14.0891 12.087 15.698C10.4494 17.3058 9.54839 19.4635 9.54839 21.7742V24.1936C9.54839 26.9626 10.9045 29.5609 13.129 31.1344V31.715L9.84911 32.5461L3.90409 29.0323H0V54.0982L11.742 58.0645H14.0289L14.3144 57.0509L17.9137 59.2405C17.9726 61.224 19.542 62.8199 21.4973 62.8896C21.566 64.863 23.1308 66.449 25.0779 66.5187C25.1467 68.4921 26.7115 70.078 28.6586 70.1477C28.7297 72.1672 30.3615 73.7903 32.3703 73.7903C33.1163 73.7903 33.8477 73.5546 34.4625 73.1347L35.5197 74.0809C36.1824 74.6722 37.0356 75 37.9214 75H38.1423C40.1284 75 41.7445 73.3727 41.7695 71.3662C43.7341 71.3408 45.3251 69.7283 45.3502 67.7372C47.3159 67.7118 48.9081 66.0969 48.9308 64.1046C50.9146 64.0574 52.5161 62.4147 52.5161 60.3929C52.5161 60.2712 52.5103 60.1513 52.4981 60.0302L74 49.1349V31.4516ZM62.0645 22.079V24.1936C62.0645 26.3406 60.9199 28.3465 59.0772 29.428L58.4804 29.7777L58.485 33.6058L64.4481 35.1155L51.3226 42.1172V38.8585C51.3226 37.2324 50.6745 35.7434 49.6133 34.643L53.7097 33.6058V29.7747L53.1141 29.4256C51.2725 28.3465 50.129 26.3406 50.129 24.1936V21.7742C50.129 20.1245 50.7724 18.5817 51.9421 17.4328C53.1106 16.2846 54.6608 15.6656 56.2815 15.7294C59.47 15.8262 62.0645 18.675 62.0645 22.079ZM38.7996 41.1662L33.3966 39.4161C30.9344 38.6164 28.2693 38.497 25.7487 39.0629L25.0645 39.2165V38.8585C25.0645 37.1905 26.1806 35.7422 27.7762 35.337L34.6129 33.6058V29.7747L34.0173 29.4256C32.1757 28.3465 31.0323 26.3406 31.0323 24.1936V21.7742C31.0323 20.1245 31.6757 18.5817 32.8453 17.4328C34.0138 16.2846 35.5739 15.6656 37.1847 15.7294C40.3732 15.8262 42.9677 18.675 42.9677 22.079V24.1936C42.9677 26.3406 41.8232 28.3465 39.9804 29.428L39.3836 29.7777L39.3883 33.6058L46.2238 35.337C47.8194 35.7422 48.9355 37.1905 48.9355 38.8585V43.3913L48.6406 43.5484H47.9092L40.5713 41.4232C39.9932 41.2572 39.3976 41.1893 38.7996 41.1662ZM25.332 18.105C27.5734 13.7034 32.0848 10.8871 37 10.8871C41.8686 10.8871 46.3607 13.6656 48.619 18.0075C48.0508 19.1623 47.7419 20.4411 47.7419 21.7742V24.1936C47.7419 26.9626 49.0981 29.5609 51.3226 31.1344V31.715L46.5484 32.9265L41.773 31.715V31.1356C43.9975 29.5621 45.3548 26.9626 45.3548 24.1936V22.079C45.3548 17.3797 41.7217 13.447 37.2564 13.31C34.9719 13.2421 32.8179 14.0879 31.1826 15.6969C29.5462 17.3058 28.6452 19.4635 28.6452 21.7742V24.1936C28.6452 26.9626 30.0013 29.5609 32.2258 31.1344V31.715L27.4516 32.9265L22.6763 31.715V31.1356C24.9008 29.5621 26.2581 26.9626 26.2581 24.1936V22.079C26.2581 20.6555 25.92 19.304 25.332 18.105ZM19.8427 10.789L23.6559 6.92434L27.0122 9.13814L27.6544 8.73886C29.2635 7.73945 31.0025 7.00762 32.8226 6.5664L33.5569 6.38802L34.3874 2.41935H39.6138L40.4419 6.38684L41.1763 6.56463C42.9963 7.00644 44.7353 7.73827 46.3444 8.73767L46.9866 9.13696L50.3429 6.92316L54.1514 10.7843L52.7976 13.9969C51.8762 14.3986 51.0219 14.9639 50.2782 15.6945C50.2293 15.7429 50.1873 15.7949 50.1395 15.8445C47.3276 11.3141 42.3564 8.46774 37 8.46774C31.6051 8.46774 26.62 11.3407 23.815 15.9172C23.0644 15.121 22.1716 14.476 21.182 14.0253L19.8427 10.789ZM15.5161 33.6058V29.7747L14.9205 29.4256C13.0789 28.3465 11.9355 26.3406 11.9355 24.1936V21.7742C11.9355 20.1245 12.5789 18.5817 13.7485 17.4328C14.917 16.2846 16.4707 15.6656 18.088 15.7294C21.2764 15.8262 23.871 18.675 23.871 22.079V24.1936C23.871 26.3406 22.7264 28.3465 20.8836 29.428L20.2868 29.7777L20.2915 33.6058L24.3867 34.643C23.3255 35.7434 22.6774 37.2324 22.6774 38.8585V39.7546L18.9546 40.5933L19.0513 40.2507L19.0968 38.0151L12.8021 34.2933L15.5161 33.6058ZM2.3871 31.4516H3.2572L11.8411 36.526L7.5098 54.0846L2.3871 52.3534V31.4516ZM12.129 55.6452L9.77975 54.8519L13.9875 37.7953L16.7097 39.4043V39.7498L12.2292 55.6452H12.129ZM20.2903 59.1277C20.2903 58.771 20.4325 58.4213 20.682 58.1685L22.78 56.0421C23.0294 55.7893 23.3744 55.6452 23.7264 55.6452C24.4642 55.6452 25.0645 56.2535 25.0645 57.0013C25.0645 57.3581 24.9223 57.7078 24.6729 57.9606L22.5749 60.0869C22.3254 60.3398 21.9804 60.4839 21.6284 60.4839C20.8906 60.4839 20.2903 59.8755 20.2903 59.1277ZM23.871 62.7567C23.871 62.4 24.0132 62.0503 24.2626 61.7975L26.3606 59.6711C26.6101 59.4183 26.9551 59.2742 27.3071 59.2742C28.0449 59.2742 28.6452 59.8826 28.6452 60.6304C28.6452 60.9871 28.503 61.3368 28.2535 61.5896L26.1555 63.716C25.9061 63.9688 25.5611 64.1129 25.209 64.1129C24.4712 64.1129 23.871 63.5045 23.871 62.7567ZM27.4516 66.3858C27.4516 66.029 27.5938 65.6793 27.8432 65.4265L29.9413 63.3002C30.1907 63.0473 30.5357 62.9032 30.8877 62.9032C31.6255 62.9032 32.2258 63.5116 32.2258 64.2594C32.2258 64.6161 32.0836 64.9658 31.8342 65.2186L29.7361 67.345C29.4867 67.5978 29.1417 67.7419 28.7897 67.7419C28.0519 67.7419 27.4516 67.1336 27.4516 66.3858ZM32.3703 71.371C31.6325 71.371 31.0323 70.7626 31.0323 70.0148C31.0323 69.6581 31.1745 69.3084 31.4239 69.0556L33.5219 66.9292C33.7714 66.6764 34.1164 66.5323 34.4684 66.5323C35.2062 66.5323 35.8065 67.1406 35.8065 67.8884C35.8065 68.2452 35.6643 68.5949 35.4148 68.8477L33.3168 70.974C33.0674 71.2268 32.7223 71.371 32.3703 71.371ZM38.1423 72.5807H37.9214C37.6172 72.5807 37.3258 72.4684 37.0991 72.2646L36.2062 71.4667L37.1026 70.5582C37.4225 70.2339 37.6708 69.8482 37.8544 69.4342L38.9395 70.3497C39.2233 70.5895 39.3871 70.9427 39.3871 71.319C39.3871 72.0148 38.8288 72.5807 38.1423 72.5807ZM48.8457 61.6936H48.6394C48.3399 61.6936 48.0473 61.586 47.8183 61.3911L41.3458 55.9245L39.8166 57.784L46.102 63.0916C46.3846 63.3315 46.5484 63.6847 46.5484 64.0609C46.5484 64.7567 45.9901 65.3226 45.3036 65.3226H45.043C44.7534 65.3226 44.4702 65.2186 44.247 65.0296L37.764 59.5548L36.2348 61.4142L42.5202 66.7225C42.804 66.9605 42.9677 67.3137 42.9677 67.69C42.9677 68.3858 42.4094 68.9516 41.7229 68.9516C41.2648 68.9516 40.8184 68.7868 40.467 68.4909L37.8031 66.2405C37.2162 65.0249 36.0104 64.1773 34.5983 64.1265C34.5296 62.1531 32.9648 60.5672 31.0177 60.4975C30.9489 58.5241 29.3841 56.9381 27.437 56.8684C27.3671 54.8489 25.7353 53.2258 23.7264 53.2258C22.7456 53.2258 21.7858 53.6286 21.0922 54.3315L18.9942 56.4579C18.8689 56.5849 18.7652 56.729 18.6597 56.872L14.9934 54.6422L18.2074 43.2412L26.2651 41.4255C28.3788 40.9465 30.6074 41.0505 32.6687 41.7191L34.427 42.2891L28.4662 45.3097C27.1043 46.0014 26.2581 47.3901 26.2581 48.9341V49.1733C26.2581 51.4077 28.0519 53.2258 30.2566 53.2258C30.981 53.2258 31.6937 53.0262 32.3132 52.6475L36.7576 49.9464C37.6504 49.4042 38.8486 49.5229 39.6196 50.2258L49.7042 59.4242C49.974 59.6723 50.129 60.0243 50.129 60.3929C50.129 61.1106 49.5538 61.6936 48.8457 61.6936ZM71.6129 47.6393L51.505 57.83C51.4397 57.7597 51.3715 57.693 51.2999 57.628L41.2171 48.4296C40.3335 47.6216 39.1913 47.1774 38.0012 47.1774C37.1311 47.1774 36.2768 47.4172 35.5285 47.872L31.0824 50.5743C30.8329 50.7267 30.548 50.8065 30.2566 50.8065C29.3672 50.8065 28.6452 50.0746 28.6452 49.1733V48.9341C28.6452 48.3109 28.9867 47.7521 29.5357 47.4739L36.1934 44.1001C37.3328 43.5218 38.6854 43.3925 39.9134 43.7504L47.4138 45.9217L49.2304 45.9677L71.6129 34.0281V47.6393Z" fill="#90A1AE"/>
</svg>

<svg width="74" height="75" fill="none" xmlns="http://www.w3.org/2000/svg"><path d="M74 31.452h-2.682l-3.997 2.131a5.891 5.891 0 0 0-1.423-.593l-5.028-1.275v-.58a8.529 8.529 0 0 0 3.582-6.941v-2.115c0-4.7-3.633-8.632-8.099-8.769a8.848 8.848 0 0 0-.674.014l1.304-3.094-6.32-6.404-3.726 2.458a20.04 20.04 0 0 0-4.468-1.878L41.549 0h-9.096l-.92 4.407a20.019 20.019 0 0 0-4.468 1.878l-3.726-2.458-6.315 6.4 1.281 3.097c-.049-.003-.095-.012-.144-.013a8.232 8.232 0 0 0-6.074 2.387 8.446 8.446 0 0 0-2.539 6.076v2.42a8.525 8.525 0 0 0 3.581 6.94v.581l-3.28.831-5.945-3.514H0v25.066l11.742 3.967h2.287l.285-1.014 3.6 2.19c.059 1.983 1.628 3.579 3.583 3.649.069 1.973 1.634 3.559 3.58 3.629.07 1.973 1.634 3.559 3.582 3.629.07 2.02 1.703 3.642 3.711 3.642.746 0 1.478-.235 2.093-.655l1.057.946c.662.591 1.516.919 2.401.919h.221c1.986 0 3.602-1.627 3.627-3.634 1.965-.025 3.556-1.638 3.581-3.629 1.966-.025 3.558-1.64 3.58-3.632 1.985-.048 3.586-1.69 3.586-3.712 0-.122-.006-.242-.018-.363L74 49.135V31.452Zm-11.935-9.373v2.115a6.087 6.087 0 0 1-2.988 5.234l-.597.35.005 3.828 5.963 1.51-13.125 7.001V38.86a6.06 6.06 0 0 0-1.71-4.216l4.097-1.037v-3.831l-.596-.35a6.08 6.08 0 0 1-2.985-5.231v-2.42c0-1.65.643-3.192 1.813-4.341 1.169-1.148 2.719-1.767 4.34-1.704 3.188.097 5.783 2.946 5.783 6.35ZM38.8 41.166l-5.403-1.75a14.55 14.55 0 0 0-7.648-.353l-.684.154v-.358c0-1.669 1.116-3.117 2.711-3.522l6.837-1.731v-3.831l-.596-.35a6.08 6.08 0 0 1-2.985-5.231v-2.42c0-1.65.644-3.192 1.813-4.341 1.169-1.148 2.729-1.767 4.34-1.704 3.188.097 5.783 2.946 5.783 6.35v2.115a6.087 6.087 0 0 1-2.988 5.234l-.596.35.004 3.828 6.836 1.731c1.595.405 2.712 1.853 2.712 3.521v4.533l-.295.157h-.732l-7.338-2.125c-.578-.166-1.173-.234-1.771-.257ZM25.332 18.105c2.241-4.402 6.753-7.218 11.668-7.218 4.869 0 9.36 2.779 11.619 7.12a8.507 8.507 0 0 0-.877 3.767v2.42a8.526 8.526 0 0 0 3.58 6.94v.581l-4.774 1.211-4.775-1.211v-.58a8.529 8.529 0 0 0 3.582-6.941v-2.115c0-4.7-3.633-8.632-8.099-8.769a8.232 8.232 0 0 0-6.073 2.387 8.454 8.454 0 0 0-2.538 6.077v2.42a8.525 8.525 0 0 0 3.58 6.94v.581l-4.773 1.211-4.776-1.211v-.58a8.529 8.529 0 0 0 3.582-6.941v-2.115a9.015 9.015 0 0 0-.926-3.974Zm-5.49-7.316 3.814-3.865 3.356 2.214.642-.4a17.68 17.68 0 0 1 5.169-2.172l.734-.178.83-3.969h5.227l.828 3.968.734.178a17.698 17.698 0 0 1 5.168 2.173l.643.399 3.356-2.214 3.808 3.861-1.353 3.213a8.338 8.338 0 0 0-2.52 1.697c-.049.049-.09.1-.139.15-2.811-4.53-7.783-7.376-13.139-7.376-5.395 0-10.38 2.873-13.185 7.45a8.42 8.42 0 0 0-2.633-1.893l-1.34-3.236Zm-4.326 22.817v-3.831l-.595-.35a6.08 6.08 0 0 1-2.986-5.231v-2.42c0-1.65.644-3.192 1.813-4.341 1.169-1.148 2.723-1.767 4.34-1.704 3.188.097 5.783 2.946 5.783 6.35v2.115a6.087 6.087 0 0 1-2.987 5.234l-.597.35.005 3.828 4.095 1.037a6.06 6.06 0 0 0-1.71 4.215v.897l-3.722.838.096-.342.046-2.236-6.295-3.722 2.714-.687ZM2.387 31.452h.87l8.584 5.074L7.51 54.085l-5.123-1.732V31.452Zm9.742 24.193-2.35-.793 4.209-17.057 2.722 1.61v.345l-4.48 15.895h-.101Zm8.161 3.483c0-.357.143-.707.392-.96l2.098-2.126c.25-.253.594-.397.946-.397.738 0 1.338.608 1.338 1.356 0 .357-.142.707-.391.96l-2.098 2.126c-.25.253-.595.397-.947.397a1.349 1.349 0 0 1-1.338-1.356Zm3.581 3.629c0-.357.142-.707.392-.96l2.098-2.126c.25-.253.594-.397.946-.397.738 0 1.338.609 1.338 1.356 0 .357-.142.707-.392.96l-2.098 2.126c-.249.253-.594.397-.946.397a1.349 1.349 0 0 1-1.338-1.356Zm3.58 3.629c0-.357.143-.707.392-.96l2.098-2.126c.25-.253.595-.397.947-.397.737 0 1.338.609 1.338 1.356 0 .357-.142.707-.392.96l-2.098 2.126c-.25.253-.594.397-.946.397a1.349 1.349 0 0 1-1.338-1.356Zm4.92 4.985a1.349 1.349 0 0 1-1.339-1.356c0-.357.142-.707.392-.96l2.098-2.126c.25-.253.594-.397.946-.397.738 0 1.338.609 1.338 1.356 0 .357-.142.707-.391.96l-2.098 2.126c-.25.253-.595.397-.947.397Zm5.771 1.21h-.22c-.305 0-.596-.113-.823-.316l-.893-.798.897-.909c.32-.324.568-.71.751-1.124l1.086.916c.283.24.447.593.447.969 0 .696-.558 1.262-1.245 1.262Zm10.704-10.887h-.207c-.3 0-.592-.108-.82-.303l-6.473-5.466-1.53 1.859 6.286 5.308c.283.24.446.593.446.969 0 .696-.558 1.262-1.244 1.262h-.261c-.29 0-.573-.104-.796-.293l-6.483-5.475-1.53 1.86 6.286 5.307c.284.239.448.592.448.968 0 .696-.559 1.262-1.245 1.262-.458 0-.905-.165-1.256-.461l-2.664-2.25a3.711 3.711 0 0 0-3.205-2.115c-.068-1.973-1.633-3.559-3.58-3.629-.07-1.973-1.634-3.559-3.581-3.629-.07-2.02-1.702-3.642-3.71-3.642-.981 0-1.941.403-2.635 1.105l-2.098 2.127c-.125.127-.229.271-.334.414l-3.667-2.23 3.214-11.4 8.058-1.816a12.139 12.139 0 0 1 6.404.293l1.758.57-5.96 3.02a4.039 4.039 0 0 0-2.209 3.625v.24c0 2.234 1.794 4.052 3.999 4.052.724 0 1.437-.2 2.056-.578l4.445-2.702a2.438 2.438 0 0 1 2.862.28l10.084 9.198c.27.248.425.6.425.969 0 .718-.575 1.3-1.283 1.3Zm22.767-14.055L51.505 57.83a3.372 3.372 0 0 0-.205-.202L41.217 48.43a4.756 4.756 0 0 0-5.688-.558l-4.447 2.702c-.25.153-.534.233-.825.233-.89 0-1.612-.732-1.612-1.634v-.239c0-.623.342-1.182.89-1.46l6.658-3.374a5.125 5.125 0 0 1 3.72-.35l7.5 2.172 1.817.046 22.383-11.94V47.64Z" fill="#90A1AE"/></svg>
